!!!OTL: ALLEWEIL KA MER NET LUSTIG SEI
!!!ARE: Europa, Mitteleuropa, Deutschland, Schwaben
!!!SCT: E0575
!!!YEM: Copyright 1995, estate of Helmut Schaffrath.
**kern
*ICvox
*Ivox
*M3/8
*k[f#]
*G:
=1
{8.g
16g
8g
=2
8b
8a
8g
=3
8.dd
16d
8d}
=4
{8.g
16f#
8g
=5
8b
8a
8g
=6
4.dd}
=7
{8.cc
16dd
8ee
=8
8ee
8dd
8cc
=9
8b
16b
16cc
8dd}
=10
{8a
16a
16b
8cc
=11
8.g
16g
8g
=12
8f#
8e
8f#
=13
[4.g
=14
4g]
8r}
==
!!!AGN: Liebes - Lied
!!!ONB: ESAC (Essen Associative Code) Database: ERK1
!!!AMT: simple triple
!!!AIN: vox
!!!EED: Helmut Schaffrath
!!!EEV: 1.0
*-
